X: 1
T:The Isle of Skye
M:4/4
Z: posted by Frank Tetler 8/96
K:G
Z: posted by Frank Tetler 8/96
ge|:d2 G2 cBAG|d2 G2 cBAG|e2 A2 ABcA|e2 A2 ABcA|
B2 GB d2 Bc|dgfe d2 cB|cBAG ABcA|B2 G2 G2 :|
|:ga|b2 g2 g2 gf|g2 d2 edcd|e2 A2 ABcA|e2 A2 ABcA|
b2 gb d2 bc|dgfe d2 cB|cBAG ABcA|B2 G2 G2:|
